assets/icons/icon_social_LinkedIn.svg

<?xml version="1.0" encoding="UTF-8"?>
<svg width="34px" height="34px" viewBox="0 0 34 34" version="1.1" xmlns="http://www.w3.org/2000/svg" xmlns:xlink="http://www.w3.org/1999/xlink">
    <!-- Generator: Sketch 59.1 (86144) - https://sketch.com -->
    <title>Shape</title>
    <desc>Created with Sketch.</desc>
    <g id="Welcome" stroke="none" stroke-width="1" fill="none" fill-rule="evenodd" opacity="0.7">
        <g id="portfolio-desktop" transform="translate(-133.000000, -16.000000)" fill="#6097DF">
            <g id="nav-bar" transform="translate(0.000000, -1.000000)">
                <g id="social-media-copy" transform="translate(133.000000, 17.000000)">
                    <g id="linkedin">
                        <path d="M29.8460234,0 C32.1386992,0 34,1.86136719 34,4.15397656 L34,29.8460234 C34,32.1386328 32.1386328,34 29.8460234,34 L4.15397656,34 C1.86136719,34 0,32.1386328 0,29.8460234 L0,4.15397656 C0,1.86136719 1.86130078,0 4.15397656,0 L29.8460234,0 Z M11.05,28.05 L11.05,12.75 L5.95,12.75 L5.95,28.05 L11.05,28.05 Z M28.05,28.05 L28.05,19.4776953 C28.05,14.8860065 25.5769502,12.75 22.2791718,12.75 C19.6199986,12.75 18.4288354,14.1997665 17.7619043,15.2180004 L17.7619043,13.1015308 L12.75,13.1015308 C12.8164727,14.5042764 12.75,28.05 12.75,28.05 L17.7618374,28.05 L17.7618374,19.7017399 C17.7618374,19.2548428 17.7943055,18.8082106 17.9271172,18.4887997 C18.2888086,17.5963963 19.1140715,16.6719392 20.4987737,16.6719392 C22.3115731,16.6719392 23.0378953,18.0432934 23.0378953,20.0519461 L23.0378953,28.05 L28.05,28.05 L28.05,28.05 Z M8.94280255,5.95 C7.13265336,5.95 5.95,7.05357033 5.95,8.5 C5.95,9.91602738 7.09669574,11.05 8.87279094,11.05 L8.90691543,11.05 C10.7516826,11.05 11.9,9.91602738 11.9,8.5 C11.865805,7.05559715 10.7549259,5.9531383 8.94280255,5.95 L8.94280255,5.95 Z" id="Shape"></path>
                    </g>
                </g>
            </g>
        </g>
    </g>
</svg>

<svg width="34" height="34" xmlns="http://www.w3.org/2000/svg"><path d="M29.846 0A4.156 4.156 0 0134 4.154v25.692A4.156 4.156 0 0129.846 34H4.154A4.156 4.156 0 010 29.846V4.154A4.156 4.156 0 014.154 0h25.692zM11.05 28.05v-15.3h-5.1v15.3h5.1zm17 0v-8.572c0-4.592-2.473-6.728-5.77-6.728-2.66 0-3.851 1.45-4.518 2.468v-2.116H12.75c.066 1.402 0 14.948 0 14.948h5.012v-8.348c0-.447.032-.894.165-1.213.362-.893 1.187-1.817 2.572-1.817 1.813 0 2.539 1.371 2.539 3.38v7.998h5.012zM8.943 5.95c-1.81 0-2.993 1.104-2.993 2.55 0 1.416 1.147 2.55 2.923 2.55h.034c1.845 0 2.993-1.134 2.993-2.55-.034-1.444-1.145-2.547-2.957-2.55z" fill="#6097DF" fill-rule="evenodd" opacity=".7"/></svg>
